pages/zim/img/icon/success-icon.svg

<svg width="72" height="72" viewBox="0 0 72 72" fill="none" xmlns="http://www.w3.org/2000/svg">
<circle cx="36" cy="36" r="36" fill="#12B259"/>
<path d="M53.424 25.6447L52.2448 24.4655C51.8742 24.0946 51.3802 23.8906 50.8528 23.8906C50.3254 23.8906 49.831 24.0946 49.4605 24.4655L32.8908 41.0348L22.5383 30.682C22.1678 30.3118 21.6735 30.1075 21.146 30.1075C20.6189 30.1075 20.1249 30.3118 19.754 30.682L18.5745 31.861C18.2037 32.2324 18 32.727 18 33.2538C18 33.781 18.2037 34.2753 18.5745 34.6461L30.2631 46.3341C30.2786 46.3561 30.295 46.3766 30.314 46.3953L31.4936 47.5552C31.8641 47.9246 32.3584 48.1093 32.89 48.1093H32.8961C33.4238 48.1093 33.9181 47.9246 34.2881 47.5552L35.4679 46.3851C35.4869 46.3663 35.503 46.3508 35.5127 46.335L53.4237 28.4257C54.192 27.6592 54.192 26.4121 53.424 25.6447Z" fill="white"/>
</svg>

<svg width="72" height="72" fill="none" xmlns="http://www.w3.org/2000/svg"><circle cx="36" cy="36" r="36" fill="#12B259"/><path d="M53.424 25.645l-1.18-1.18a1.953 1.953 0 00-1.391-.574 1.95 1.95 0 00-1.392.575L32.89 41.034 22.538 30.682a1.956 1.956 0 00-1.392-.574c-.527 0-1.021.204-1.392.574l-1.18 1.179c-.37.371-.574.866-.574 1.393s.204 1.021.575 1.392l11.688 11.688a.44.44 0 00.051.061l1.18 1.16c.37.37.864.554 1.396.554h.006c.528 0 1.022-.184 1.392-.554l1.18-1.17c.019-.019.035-.034.045-.05l17.91-17.91a1.966 1.966 0 00.001-2.78z" fill="#fff"/></svg>
